apps/nuxt3-ssr/assets/minified-icons/Cross.svg

<svg viewBox="0 0 24 24" fill="none" xmlns="http://www.w3.org/2000/svg"><path fill-rule="evenodd" clip-rule="evenodd" d="M19.4013 19.4589C18.6031 20.1804 17.3095 20.1804 16.513 19.4589L12.0009 14.7976L7.48875 19.4573C6.6905 20.1788 5.39695 20.1788 4.60039 19.4573C3.80214 18.7358 3.80214 17.5667 4.60039 16.8467L9.29461 12.0008L4.59869 7.15177C3.80044 6.43027 3.80044 5.26263 4.59869 4.54113C5.39695 3.81962 6.68879 3.81962 7.48705 4.54113L12.0009 9.20398L16.513 4.54113C17.3112 3.81962 18.6031 3.81962 19.4013 4.54113C20.1996 5.26263 20.1996 6.43181 19.4013 7.15177L14.7071 12.0008L19.4013 16.8467C20.1996 17.5682 20.1996 18.7374 19.4013 19.4589Z" fill="currentColor"/></svg>

<svg fill="none" xmlns="http://www.w3.org/2000/svg" viewBox="0 0 24 24"><path fill-rule="evenodd" clip-rule="evenodd" d="M19.401 19.459c-.798.721-2.091.721-2.888 0l-4.512-4.661-4.512 4.66c-.798.72-2.092.72-2.889 0-.798-.722-.798-1.891 0-2.611L9.295 12 4.599 7.15c-.799-.72-.799-1.888 0-2.61.798-.721 2.09-.721 2.888 0l4.514 4.663 4.512-4.663c.798-.721 2.09-.721 2.888 0 .799.722.799 1.89 0 2.61l-4.694 4.85 4.694 4.846c.799.721.799 1.89 0 2.612Z" fill="currentColor"/></svg>
